X:1
T:[ID 1-106]
T:[ID 1-106]
T:Bezeichnung standardisiert: Rode See; Rode See
T:Urheber unbekannt Datum in der hier transkribierten schriftlichen Quelle: vermutlich vor 1767
C:Urheber unbekannt
C:Datum in der hier transkribierten schriftlichen Quelle: vermutlich vor 1767
L:1/8
M:4/4
K:C
V:1 treble 
V:1
 d2 e2 f2 d2 | e4 A4 | d2 e2 f2 g2 | a2 b2 a2 gf | e2 f2 g2 f2 | egde c2 A2 | BcdB cdec | d3 D3 :: %8
 ag | f4 d2 gf | e4 c2 e2 | c2 A2 B2 G2 | A6 ag | f4 d2 gf | e4 c2 e2 | c2 A2 B2 G2 | A6"^[sic]" | %17
 A2 d2 d2"^[erg.]" d2 ef | gfga g4 | e2 e2 efge | agab a4 | e2 f2 g2 f2 | efde c2 A2 | BcdB cdec | %24
 d3 D3 :| %25

